images/home/TodayArrow.svg

<?xml version="1.0" encoding="UTF-8"?>
<svg width="185px" height="185px" version="1.1" xmlns="http://www.w3.org/2000/svg"><path transform="translate(46.2 -.7)" d="m22.8 137.05v-88l72 43.8-72 44.2" fill="url(#b)" fill-rule="evenodd"/><path transform="translate(46.2 -.7)" d="m111.7 27.8q27.05 27.05 27.1 65.4-0.05 38.3-27.1 65.4-27.1 27.05-65.4 27.1-22.3 0-40.8-9.15-13.3-6.65-24.6-17.95-27.1-27.1-27.1-65.4 0-38.35 27.1-65.4 27.05-27.1 65.4-27.1 25.95 0 46.75 12.45 9.9 5.9 18.65 14.65m5.1 65.45q-0.05-29-20.5-49.45-10.7-10.7-23.7-15.85-11.95-4.75-25.85-4.7-28.95-0.05-49.4 20.55-20.6 20.45-20.6 49.45 0 28.95 20.6 49.5l2.55 2.5q19.7 17.95 46.85 18 29-0.05 49.55-20.5 20.45-20.55 20.5-49.5" fill="url(#a)" fill-rule="evenodd"/><defs><linearGradient id="b" x1="-819.2" x2="819.2" gradientTransform="matrix(.0439 0 0 .0537 58.8 93.05)" gradientUnits="userSpaceOnUse"><stop stop-color="#9c9c8c" stop-opacity="0" offset=".066667"/><stop stop-color="#764842" offset="1"/></linearGradient><linearGradient id="a" x1="-819.2" x2="819.2" gradientTransform="matrix(.1129 0 0 .1129 46.3 93.2)" gradientUnits="userSpaceOnUse"><stop stop-color="#949484" offset=".047059"/><stop stop-color="#9c9484" offset="1"/></linearGradient></defs></svg>

<?xml version="1.0" encoding="UTF-8" standalone="no"?>
<svg
   ffdec:objectType="shape"
   height="185.0px"
   width="185.0px"
   version="1.1"
   id="svg5"
   sodipodi:docname="TodayArrow.svg"
   inkscape:version="1.3 (0e150ed6c4, 2023-07-21)"
   xmlns:inkscape="http://www.inkscape.org/namespaces/inkscape"
   xmlns:sodipodi="http://sodipodi.sourceforge.net/DTD/sodipodi-0.dtd"
   xmlns="http://www.w3.org/2000/svg"
   xmlns:svg="http://www.w3.org/2000/svg"
   xmlns:ffdec="https://www.free-decompiler.com/flash">
  <sodipodi:namedview
     id="namedview5"
     pagecolor="#505050"
     bordercolor="#ffffff"
     borderopacity="1"
     inkscape:showpageshadow="0"
     inkscape:pageopacity="0"
     inkscape:pagecheckerboard="1"
     inkscape:deskcolor="#505050"
     inkscape:zoom="105.18691"
     inkscape:cx="183.92022"
     inkscape:cy="183.84417"
     inkscape:window-width="1287"
     inkscape:window-height="747"
     inkscape:window-x="-4"
     inkscape:window-y="-4"
     inkscape:window-maximized="1"
     inkscape:current-layer="svg5" />
  <g
     transform="translate(46.2,-0.69999953)"
     id="g2">
    <path
       d="m 22.8,137.05 v -88 l 72,43.8 -72,44.2"
       fill="url(#gradient0)"
       fill-rule="evenodd"
       stroke="none"
       id="path1"
       style="fill:url(#gradient0)" />
    <path
       d="m 111.7,27.8 q 27.05,27.05 27.1,65.4 -0.05,38.3 -27.1,65.4 Q 84.6,185.65 46.3,185.7 24,185.7 5.5,176.55 -7.8,169.9 -19.1,158.6 -46.2,131.5 -46.2,93.2 -46.2,54.85 -19.1,27.8 7.95,0.7 46.3,0.7 q 25.95,0 46.75,12.45 9.9,5.9 18.65,14.65 m 5.1,65.45 Q 116.75,64.25 96.3,43.8 85.6,33.1 72.6,27.95 60.65,23.2 46.75,23.25 17.8,23.2 -2.65,43.8 q -20.6,20.45 -20.6,49.45 0,28.95 20.6,49.5 l 2.55,2.5 q 19.7,17.95 46.85,18 29,-0.05 49.55,-20.5 20.45,-20.55 20.5,-49.5"
       fill="url(#gradient1)"
       fill-rule="evenodd"
       stroke="none"
       id="path2"
       style="fill:url(#gradient1)" />
  </g>
  <defs
     id="defs5">
    <linearGradient
       gradientTransform="matrix(0.0439,0,0,0.0537,58.8,93.05)"
       gradientUnits="userSpaceOnUse"
       id="gradient0"
       spreadMethod="pad"
       x1="-819.2"
       x2="819.2">
      <stop
         offset="0.06666667"
         stop-color="#9c9c8c"
         id="stop2"
         style="stop-color:#9c9c8c;stop-opacity:0;" />
      <stop
         offset="1.0"
         stop-color="#764842"
         id="stop3" />
    </linearGradient>
    <linearGradient
       gradientTransform="matrix(0.1129,0,0,0.1129,46.3,93.2)"
       gradientUnits="userSpaceOnUse"
       id="gradient1"
       spreadMethod="pad"
       x1="-819.2"
       x2="819.2">
      <stop
         offset="0.047058823529411764"
         stop-color="#949484"
         id="stop4" />
      <stop
         offset="1.0"
         stop-color="#9c9484"
         id="stop5" />
    </linearGradient>
  </defs>
</svg>
